logo-lockup/horizontal_white.svg

<svg height="26" viewBox="0 0 141 26" width="141" xmlns="http://www.w3.org/2000/svg"><g fill="none" transform="translate(.040503 .246852)"><g transform="translate(0 .988208)"><path d="m6.3241629.32004615c-.6667626 4.08863401 1.29583382 7.22635934 5.8877903 9.41317621 4.4899137 2.13822094 6.4686367 5.53347614 5.93617 10.18576574l-.0401955.3191495h-6.1438809c.200878-1.5347399-.025659-2.6206702-.6796118-3.257791-2.4249983-2.3625818-4.81542765-2.4153015-7.26007474-5.0344209-3.12563138-3.34870615-4.43055632-7.09416764-3.91477482-11.23638436l.05368939-.38949519z" fill="#ff4c4c"/><path d="m18.5259226 0v7.44107328h-7.4410731v-7.44107328z" fill="#ffb500"/><path d="m4.62386348 1.80876567c0 1.12776372.33837699 2.48329907 1.01513097 4.06660605.72345084 1.69255711 2.46185813 2.9727063 3.47740575 3.84717704 1.0155476.87447074 1.0155476.97329064 1.2342777 1.39157684.2187301.4182863-.0727816 2.4756856-.3102397 2.50516-.23745803.0294744-1.80176918.0403731-5.01968781-2.8322216-2.71673199-2.42519171-3.8826852-5.41795783-3.49785961-8.97829833z" fill="#2e53c2"/></g><g transform="translate(0 .988208)"><path d="m6.3241629.32004615c-.6667626 4.08863401 1.29583382 7.22635934 5.8877903 9.41317621 4.4899137 2.13822094 6.4686367 5.53347614 5.93617 10.18576574l-.0401955.3191495h-6.1438809c.200878-1.5347399-.025659-2.6206702-.6796118-3.257791-2.4249983-2.3625818-4.81542765-2.4153015-7.26007474-5.0344209-3.12563138-3.34870615-4.43055632-7.09416764-3.91477482-11.23638436l.05368939-.38949519z" fill="#ff4c4c"/><path d="m18.5259226 0v7.44107328h-7.4410731v-7.44107328z" fill="#ffb500"/><path d="m4.82460162 1.80876567c-.13382542 1.12776372.13763885 2.48329907.81439283 4.06660605.72345084 1.69255711 2.46185813 2.9727063 3.47740575 3.84717704 1.0155476.87447074 1.0155476.97329064 1.2342777 1.39157684.2187301.4182863-.0727816 2.4756856-.3102397 2.50516-.23745803.0294744-1.80176918.0403731-5.01968781-2.8322216-2.71673199-2.42519171-3.97398904-5.41795783-3.77177115-8.97829833z" fill="#2e53c2"/></g><path d="m87.3432376 5.08490566c3.8396226 0 6.5896226 2.93160377 6.5896226 7.05660374 0 4.1768868-2.620283 7.1084906-6.4339622 7.1084906-2.7303188 0-4.0820901-1.5720279-4.5690375-2.4276781l-.0488871-.0888313h-.1556603v8.1462264h-2.0495283v-19.45754719h1.9716981v2.12735849h.1556604c.3372641-.49292453 1.6084905-2.46462264 4.5400943-2.46462264zm-55.204495 0c2.3349057 0 4.5919811 1.3490566 4.9033019 3.78773585l-1.7900944.51886792c-.1816037-1.58254717-1.4787735-2.54245283-3.2429245-2.54245283-1.6863207 0-2.7759434.83018868-2.7759434 1.99764151 0 1.47608979 1.5038532 1.78572929 3.2151345 2.10692029l.4140264.0779108c2.152854.4099173 4.4651787.9824998 4.4651787 3.9637538 0 2.5424528-2.1014151 4.254717-5.240566 4.254717-3.0353774 0-4.9292453-1.6603774-5.240566-4.0731132l1.8679245-.4669811c.1556604 1.8160377 1.4268868 2.75 3.4764151 2.75 2.0235849 0 3.1391509-.9858491 3.1391509-2.3608491 0-1.6909535-1.608019-2.0530939-3.3883258-2.4113564l-.4298464-.0865869c-2.0864736-.4247011-4.250224-.9868107-4.250224-3.75441519 0-2.28301886 2.0495283-3.76179245 4.8773585-3.76179245zm23.3841565 0c4.0731132 0 7.0306604 3.03537736 7.0306604 7.08254714 0 4.0471698-3.009434 7.0825472-7.0566038 7.0825472s-7.0306604-2.9834906-7.0306604-7.0825472c0-4.07311318 3.0353774-7.08254714 7.0566038-7.08254714zm54.0889289 0c3.986451 0 6.307874 2.7336283 6.404854 6.64425014l.003165.2566933v.7523584h-10.84434c.025944 3.009434 1.790095 4.6957548 4.591981 4.6957548 1.82623 0 3.50772-1.0131823 4.020948-2.7604048l.052166-.1971424 1.997641.4669811c-.752358 2.5165095-2.98349 4.3066038-6.096698 4.3066038-4.099057 0-6.667453-2.879717-6.667453-7.0306604 0-4.30660375 2.957547-7.13443394 6.537736-7.13443394zm13.028163 0c2.334906 0 4.591981 1.3490566 4.903302 3.78773585l-1.790094.51886792c-.181604-1.58254717-1.478774-2.54245283-3.242925-2.54245283-1.686321 0-2.775943.83018868-2.775943 1.99764151 0 3.42452829 8.094339.57075472 8.094339 6.14858489 0 2.5424528-2.101415 4.254717-5.240566 4.254717-3.035377 0-4.929245-1.6603774-5.240566-4.0731132l1.867925-.4669811c.15566 1.8160377 1.426887 2.75 3.476415 2.75 2.023585 0 3.139151-.9858491 3.139151-2.3608491 0-1.7423585-1.707273-2.073884-3.551127-2.4440564l-.241148-.0486216c-2.094427-.4253522-4.276121-.9806239-4.276121-3.75968049 0-2.28301886 2.049528-3.76179245 4.877358-3.76179245zm12.197975 0c2.334905 0 4.591981 1.3490566 4.903302 3.78773585l-1.790095.51886792c-.181604-1.58254717-1.478773-2.54245283-3.242924-2.54245283-1.686321 0-2.775944.83018868-2.775944 1.99764151 0 3.42452829 8.09434.57075472 8.09434 6.14858489 0 2.5424528-2.101415 4.254717-5.240566 4.254717-3.035377 0-4.929245-1.6603774-5.240566-4.0731132l1.867924-.4669811c.155661 1.8160377 1.426887 2.75 3.476415 2.75 2.023585 0 3.139151-.9858491 3.139151-2.3608491 0-3.7877358-8.068396-.9080189-8.068396-6.25235849 0-2.28301886 2.049528-3.76179245 4.877359-3.76179245zm-91.7205886-3.58018868v3.91745283h4.1509434v1.73820755h-4.1509434v7.88679244c0 1.4528302.5966982 2.0754717 2.023585 2.0754717h1.9457547v1.7900943h-1.9198114c-2.4646226 0-4.0990566-1.115566-4.0990566-3.8396226v-7.91273584h-2.5424528v-1.73820755h2.6721698v-3.91745283zm28.2874584 3.58018868v2.0495283h-1.2193396c-2.4646226 0-3.4764151 1.99764151-3.4764151 4.56603774v7.2122641h-2.0495283v-13.49056599h2.0235849v2.25707547h.1556604c.3891509-1.14150943 1.7122641-2.59433962 3.6839623-2.59433962zm5.6602386.33726415v13.49056599h-2.0495283v-11.75235844h-2.5424528v-1.73820755zm25.7190626-.33726415v2.0495283h-1.21934c-2.4646227 0-3.4764151 1.99764151-3.4764151 4.56603774v7.2122641h-2.0495283v-13.49056599h2.0235849v2.25707547h.1556604c.3891509-1.14150943 1.7122641-2.59433962 3.6839621-2.59433962zm-52.0480246 5.80340734c-.7856135 2.9319493.6300486 5.5673956 3.4116416 6.3127212 2.8066524.7520402 5.3570896-.8475515 6.1359884-3.7544415.7721842-2.8818306-.6300487-5.56739563-3.4367011-6.31943588-2.8066524-.75204024-5.3454594.90438494-6.1109289 3.76115618zm32.1682165.4562014c-.576643 3.270305 1.1339259 5.521352 3.6377532 5.9628443 2.6060242.4595124 4.8705863-1.3277043 5.4066841-4.368066.5496128-3.11700942-1.0918374-5.46124335-3.6467632-5.9117457-2.7593199-.48654254-4.9066265 1.53209832-5.3976741 4.3169674zm22.7006001-.8793119-.039095.225993 8.657965.7574738c.114977-2.80253033-1.705795-4.31603706-3.928437-4.51049304-2.130228-.18637077-4.222163 1.14886941-4.690433 3.52702624zm-29.5775904-10.4652025c.8820755 0 1.504717.64858491 1.504717 1.47877358 0 .85613208-.6226415 1.50471699-1.504717 1.50471699-.8561321 0-1.4787736-.64858491-1.4787736-1.50471699 0-.83018867.6226415-1.47877358 1.4787736-1.47877358z" fill="#fff"/></g></svg>

<?xml version="1.0" encoding="UTF-8"?>
<svg width="141px" height="26px" viewBox="0 0 141 26" version="1.1" xmlns="http://www.w3.org/2000/svg" xmlns:xlink="http://www.w3.org/1999/xlink">
    <title>horizontal_white</title>
    <g id="🚧-Manager-v2" stroke="none" stroke-width="1" fill="none" fill-rule="evenodd">
        <g id="horizontal_white" transform="translate(0.040503, 0.246852)" fill-rule="nonzero">
            <g id="Group-2" transform="translate(0.000000, 0.988208)">
                <path d="M6.3241629,0.32004615 C5.6574003,4.40868016 7.61999672,7.54640549 12.2119532,9.73322236 C16.7018669,11.8714433 18.6805899,15.2666985 18.1481232,19.9189881 L18.1079277,20.2381376 L11.9640468,20.2381376 C12.1649248,18.7033977 11.9383878,17.6174674 11.284435,16.9803466 C8.8594367,14.6177648 6.46900735,14.5650451 4.02436026,11.9459257 C0.89872888,8.59721955 -0.40619606,4.85175806 0.109585441,0.709541341 L0.16327483,0.32004615 L6.3241629,0.32004615 Z" id="SP-Logo-[WHITE]-path" fill="#FF4C4C"></path>
                <polygon id="SP-Logo-[WHITE]-path" fill="#FFB500" points="18.5259226 0 18.5259226 7.44107328 11.0848495 7.44107328 11.0848495 0"></polygon>
                <path d="M4.62386348,1.80876567 C4.62386348,2.93652939 4.96224047,4.29206474 5.63899445,5.87537172 C6.36244529,7.56792883 8.10085258,8.84807802 9.1164002,9.72254876 C10.1319478,10.5970195 10.1319478,10.6958394 10.3506779,11.1141256 C10.569408,11.5324119 10.2778963,13.5898112 10.0404382,13.6192856 C9.80298017,13.64876 8.23866902,13.6596587 5.02075039,10.787064 C2.3040184,8.36187229 1.13806519,5.36910617 1.52289078,1.80876567 L4.62386348,1.80876567 Z" id="Line-6" fill="#2E53C2"></path>
            </g>
            <g id="Group-2" transform="translate(0.000000, 0.988208)">
                <path d="M6.3241629,0.32004615 C5.6574003,4.40868016 7.61999672,7.54640549 12.2119532,9.73322236 C16.7018669,11.8714433 18.6805899,15.2666985 18.1481232,19.9189881 L18.1079277,20.2381376 L11.9640468,20.2381376 C12.1649248,18.7033977 11.9383878,17.6174674 11.284435,16.9803466 C8.8594367,14.6177648 6.46900735,14.5650451 4.02436026,11.9459257 C0.89872888,8.59721955 -0.40619606,4.85175806 0.109585441,0.709541341 L0.16327483,0.32004615 L6.3241629,0.32004615 Z" id="SP-Logo-[WHITE]-path" fill="#FF4C4C"></path>
                <polygon id="SP-Logo-[WHITE]-path" fill="#FFB500" points="18.5259226 0 18.5259226 7.44107328 11.0848495 7.44107328 11.0848495 0"></polygon>
                <path d="M4.82460162,1.80876567 C4.6907762,2.93652939 4.96224047,4.29206474 5.63899445,5.87537172 C6.36244529,7.56792883 8.10085258,8.84807802 9.1164002,9.72254876 C10.1319478,10.5970195 10.1319478,10.6958394 10.3506779,11.1141256 C10.569408,11.5324119 10.2778963,13.5898112 10.0404382,13.6192856 C9.80298017,13.64876 8.23866902,13.6596587 5.02075039,10.787064 C2.3040184,8.36187229 1.04676135,5.36910617 1.24897924,1.80876567 L4.82460162,1.80876567 Z" id="Line-6" fill="#2E53C2"></path>
            </g>
            <path d="M87.3432376,5.08490566 C91.1828602,5.08490566 93.9328602,8.01650943 93.9328602,12.1415094 C93.9328602,16.3183962 91.3125772,19.25 87.498898,19.25 C84.7685792,19.25 83.4168079,17.6779721 82.9298605,16.8223219 L82.8809734,16.7334906 L82.7253131,16.7334906 L82.7253131,24.879717 L80.6757848,24.879717 L80.6757848,5.42216981 L82.6474829,5.42216981 L82.6474829,7.5495283 L82.8031433,7.5495283 C83.1404074,7.05660377 84.4116338,5.08490566 87.3432376,5.08490566 Z M32.1387426,5.08490566 C34.4736483,5.08490566 36.7307237,6.43396226 37.0420445,8.87264151 L37.0420445,8.87264151 L35.2519501,9.39150943 C35.0703464,7.80896226 33.7731766,6.8490566 32.0090256,6.8490566 C30.3227049,6.8490566 29.2330822,7.67924528 29.2330822,8.84669811 C29.2330822,10.3227879 30.7369354,10.6324274 32.4482167,10.9536184 L32.8622431,11.0315292 C35.0150971,11.4414465 37.3274218,12.014029 37.3274218,14.995283 C37.3274218,17.5377358 35.2260067,19.25 32.0868558,19.25 C29.0514784,19.25 27.1576105,17.5896226 26.8462898,15.1768868 L26.8462898,15.1768868 L28.7142143,14.7099057 C28.8698747,16.5259434 30.1411011,17.4599057 32.1906294,17.4599057 C34.2142143,17.4599057 35.3297803,16.4740566 35.3297803,15.0990566 C35.3297803,13.4081031 33.7217613,13.0459627 31.9414545,12.6877002 L31.5116081,12.6011133 C29.4251345,12.1764122 27.2613841,11.6143026 27.2613841,8.84669811 C27.2613841,6.56367925 29.3109124,5.08490566 32.1387426,5.08490566 Z M55.5228991,5.08490566 C59.5960123,5.08490566 62.5535595,8.12028302 62.5535595,12.1674528 C62.5535595,16.2146226 59.5441255,19.25 55.4969557,19.25 C51.4497859,19.25 48.4662953,16.2665094 48.4662953,12.1674528 C48.4662953,8.09433962 51.5016727,5.08490566 55.5228991,5.08490566 Z M109.611828,5.08490566 C113.598279,5.08490566 115.919702,7.81853396 116.016682,11.7291558 L116.019847,11.9858491 L116.019847,12.7382075 L105.175507,12.7382075 C105.201451,15.7476415 106.965602,17.4339623 109.767488,17.4339623 C111.593718,17.4339623 113.275208,16.42078 113.788436,14.6735575 L113.840602,14.4764151 L115.838243,14.9433962 C115.085885,17.4599057 112.854753,19.25 109.741545,19.25 C105.642488,19.25 103.074092,16.370283 103.074092,12.2193396 C103.074092,7.91273585 106.031639,5.08490566 109.611828,5.08490566 Z M122.639991,5.08490566 C124.974897,5.08490566 127.231972,6.43396226 127.543293,8.87264151 L127.543293,8.87264151 L125.753199,9.39150943 C125.571595,7.80896226 124.274425,6.8490566 122.510274,6.8490566 C120.823953,6.8490566 119.734331,7.67924528 119.734331,8.84669811 C119.734331,12.2712264 127.82867,9.41745283 127.82867,14.995283 C127.82867,17.5377358 125.727255,19.25 122.588104,19.25 C119.552727,19.25 117.658859,17.5896226 117.347538,15.1768868 L117.347538,15.1768868 L119.215463,14.7099057 C119.371123,16.5259434 120.64235,17.4599057 122.691878,17.4599057 C124.715463,17.4599057 125.831029,16.4740566 125.831029,15.0990566 C125.831029,13.3566981 124.123756,13.0251726 122.279902,12.6550002 L122.279902,12.6550002 L122.038754,12.6063786 C119.944327,12.1810264 117.762633,11.6257547 117.762633,8.84669811 C117.762633,6.56367925 119.812161,5.08490566 122.639991,5.08490566 Z M134.837966,5.08490566 C137.172871,5.08490566 139.429947,6.43396226 139.741268,8.87264151 L139.741268,8.87264151 L137.951173,9.39150943 C137.769569,7.80896226 136.4724,6.8490566 134.708249,6.8490566 C133.021928,6.8490566 131.932305,7.67924528 131.932305,8.84669811 C131.932305,12.2712264 140.026645,9.41745283 140.026645,14.995283 C140.026645,17.5377358 137.92523,19.25 134.786079,19.25 C131.750702,19.25 129.856834,17.5896226 129.545513,15.1768868 L129.545513,15.1768868 L131.413437,14.7099057 C131.569098,16.5259434 132.840324,17.4599057 134.889852,17.4599057 C136.913437,17.4599057 138.029003,16.4740566 138.029003,15.0990566 C138.029003,11.3113208 129.960607,14.1910377 129.960607,8.84669811 C129.960607,6.56367925 132.010135,5.08490566 134.837966,5.08490566 Z M43.1173774,1.50471698 L43.1173774,5.42216981 L47.2683208,5.42216981 L47.2683208,7.16037736 L43.1173774,7.16037736 L43.1173774,15.0471698 C43.1173774,16.5 43.7140756,17.1226415 45.1409624,17.1226415 L45.1409624,17.1226415 L47.0867171,17.1226415 L47.0867171,18.9127358 L45.1669057,18.9127358 C42.7022831,18.9127358 41.0678491,17.7971698 41.0678491,15.0731132 L41.0678491,15.0731132 L41.0678491,7.16037736 L38.5253963,7.16037736 L38.5253963,5.42216981 L41.1975661,5.42216981 L41.1975661,1.50471698 L43.1173774,1.50471698 Z M71.4048358,5.08490566 L71.4048358,7.13443396 L70.1854962,7.13443396 C67.7208736,7.13443396 66.7090811,9.13207547 66.7090811,11.7004717 L66.7090811,11.7004717 L66.7090811,18.9127358 L64.6595528,18.9127358 L64.6595528,5.42216981 L66.6831377,5.42216981 L66.6831377,7.67924528 L66.8387981,7.67924528 C67.227949,6.53773585 68.5510622,5.08490566 70.5227604,5.08490566 L70.5227604,5.08490566 L71.4048358,5.08490566 Z M77.0650744,5.42216981 L77.0650744,18.9127358 L75.0155461,18.9127358 L75.0155461,7.16037736 L72.4730933,7.16037736 L72.4730933,5.42216981 L77.0650744,5.42216981 Z M102.784137,5.08490566 L102.784137,7.13443396 L101.564797,7.13443396 C99.1001743,7.13443396 98.0883819,9.13207547 98.0883819,11.7004717 L98.0883819,11.7004717 L98.0883819,18.9127358 L96.0388536,18.9127358 L96.0388536,5.42216981 L98.0624385,5.42216981 L98.0624385,7.67924528 L98.2180989,7.67924528 C98.6072498,6.53773585 99.930363,5.08490566 101.902061,5.08490566 L101.902061,5.08490566 L102.784137,5.08490566 Z M50.7361124,10.888313 C49.9504989,13.8202623 51.366161,16.4557086 54.147754,17.2010342 C56.9544064,17.9530744 59.5048436,16.3534827 60.2837424,13.4465927 C61.0559266,10.5647621 59.6536937,7.87919707 56.8470413,7.12715682 C54.0403889,6.37511658 51.5015819,8.03154176 50.7361124,10.888313 Z M82.9043289,11.3445144 C82.3276859,14.6148194 84.0382548,16.8658664 86.5420821,17.3073587 C89.1481063,17.7668711 91.4126684,15.9796544 91.9487662,12.9392927 C92.498379,9.82228328 90.8569288,7.47804935 88.302003,7.027547 C85.5426831,6.54100446 83.3953765,8.55964532 82.9043289,11.3445144 Z M105.604929,10.4652025 L105.565834,10.6911955 L114.223799,11.4486693 C114.338776,8.64613897 112.518004,7.13263224 110.295362,6.93817626 C108.165134,6.75180549 106.073199,8.08704567 105.604929,10.4652025 Z M76.0273386,0 C76.9094141,0 77.5320556,0.648584906 77.5320556,1.47877358 C77.5320556,2.33490566 76.9094141,2.98349057 76.0273386,2.98349057 C75.1712065,2.98349057 74.548565,2.33490566 74.548565,1.47877358 C74.548565,0.648584906 75.1712065,0 76.0273386,0 Z" id="Combined-Shape" fill="#FFFFFF"></path>
        </g>
    </g>
</svg>
